static/images/mobile/copyright/wikipedia-wordmark-iu.svg

<?xml version="1.0" encoding="UTF-8"?>
<svg width="120px" height="20px" viewBox="0 0 120 20" version="1.1" xmlns="http://www.w3.org/2000/svg" xmlns:xlink="http://www.w3.org/1999/xlink">
    <title>iu-wordmark</title>
    <g id="Page-1" stroke="none" stroke-width="1" fill="none" fill-rule="evenodd">
        <path d="M2.28245362,16.0072298 L13.7517824,9.54933137 L2.28245362,3.07831445 L2.28245362,16.0072298 Z M0,19.0986627 L0,0 L17.2895869,9.54933137 L0,19.0986627 Z M37.8031378,16.7931864 L30.9985746,3.86427108 L24.1512137,16.7931864 L37.8031378,16.7931864 Z M30.9985746,0.026183352 L41.12696,18.666396 L20.8273886,18.666396 L30.9985746,0.026183352 Z M53.0385164,4.82049997 C53.0385164,4.42753507 52.9552905,4.03894301 52.7888737,3.65467012 C52.6224336,3.2704509 52.3918101,2.93205253 52.0970032,2.63947504 C51.8021789,2.34695119 51.4621875,2.11116689 51.077032,1.93212212 C50.691859,1.75313101 50.2805441,1.66360863 49.8430814,1.66360863 C49.3960944,1.66360863 48.9823984,1.75313101 48.6019963,1.93212212 C48.2215825,2.11116689 47.8911037,2.34695119 47.6105569,2.63947504 C47.3299984,2.93205253 47.1065093,3.2704509 46.9400838,3.65467012 C46.7736523,4.03894301 46.690441,4.42753507 46.690441,4.82049997 C46.690441,5.2309562 46.7736523,5.62829393 46.9400838,6.01253999 C47.1065093,6.39678605 47.3299984,6.73738424 47.6105569,7.03428092 C47.8911037,7.33120442 48.2215825,7.56916173 48.6019963,7.74817967 C48.9823984,7.92722443 49.3960944,8.01671999 49.8430814,8.01671999 C50.2805441,8.01671999 50.691859,7.92722443 51.077032,7.74817967 C51.4621875,7.56916173 51.8021789,7.33120442 52.0970032,7.03428092 C52.3918101,6.73738424 52.6224336,6.39678605 52.7888737,6.01253999 C52.9552905,5.62829393 53.0385164,5.2309562 53.0385164,4.82049997 L53.0385164,4.82049997 Z M55.1355194,4.82049997 C55.1355194,5.50166953 54.9999862,6.13261856 54.7289578,6.71334706 C54.4579061,7.29410239 54.0774952,7.80931887 53.587731,8.25905013 C53.0979435,8.70880822 52.5320878,9.05812525 51.8901552,9.30700123 C51.248208,9.55587721 50.5658501,9.68032862 49.8430814,9.68032862 C49.3200117,9.68032862 48.8207262,9.60827074 48.3452221,9.46418183 C47.8697034,9.32009291 47.4179689,9.12143746 46.9900129,8.86816182 L46.9900129,18.666396 L44.6219669,18.666396 L44.6219669,4.82049997 C44.6219669,4.15682175 44.7574884,3.53024555 45.0285314,2.94077137 C45.2995686,2.35132403 45.6752232,1.83828056 46.1554923,1.40161415 C46.6357556,0.965001387 47.1921017,0.62223019 47.8245364,0.373327383 C48.4569593,0.124451404 49.1298077,0 49.8430814,0 C50.5658501,0 51.248208,0.124451404 51.8901552,0.373327383 C52.5320878,0.62223019 53.0979435,0.965001387 53.587731,1.40161415 C54.0774952,1.83828056 54.4579061,2.35132403 54.7289578,2.94077137 C54.9999862,3.53024555 55.1355194,4.15682175 55.1355194,4.82049997 L55.1355194,4.82049997 Z M76.6761759,18.666396 L68.8017123,3.82496922 L60.9415118,18.666396 L58.6590581,18.666396 L68.8017123,0 L78.9586295,18.666396 L76.6761759,18.666396 Z M96.861626,9.03846091 C96.8330797,8.21757527 96.6880485,7.38577095 96.4265327,6.54304797 C96.1649876,5.70035181 95.7869548,4.93405953 95.2924373,4.2441443 C94.7978935,3.5542559 94.1749743,2.9909919 93.4236797,2.55435231 C92.6723588,2.11771273 91.8116846,1.89939293 90.8416542,1.89939293 C89.8240524,1.89939293 88.9395998,2.11333989 88.1883023,2.54123381 C87.4369872,2.96915456 86.814068,3.52369971 86.3195417,4.20484244 C85.8250067,4.886012 85.4517302,5.65233111 85.1997152,6.50374611 C84.9476885,7.35521477 84.8216795,8.20885643 84.8216824,9.06464426 L84.8216824,18.666396 L82.4536364,18.666396 L82.4536364,9.22185168 C82.4536364,7.78968135 82.6200649,6.53870196 82.9529248,5.46891351 C83.2857788,4.39915189 83.8611471,3.42328548 84.6790294,2.54123381 C85.5539637,1.66798146 86.5026084,1.02611376 87.5249635,0.615657525 C88.5473041,0.205228117 89.6528677,0 90.8416542,0 C91.4407863,0 91.9995134,0.0436746896 92.5178297,0.130997242 C93.0361257,0.218346621 93.5377892,0.344971028 94.0228234,0.510870463 C94.9738316,0.825258477 95.8582813,1.440916 96.6761754,2.35784304 C97.5130595,3.31847159 98.1454883,4.35330419 98.5734648,5.46236767 C99.0014062,6.57145798 99.2154061,7.78968135 99.2154061,9.11706462 L99.2154061,18.666396 L96.861626,18.666396 L96.861626,9.03846091 Z M102.710413,9.54933137 L120,0 L120,19.0986627 L102.710413,9.54933137 Z M117.731812,3.61536827 L106.533524,9.54933137 L117.731812,15.470176 L117.731812,3.61536827 Z" id="iu-wordmark" fill="#000000" fill-rule="nonzero"></path>
    </g>
</svg>

<svg xmlns="http://www.w3.org/2000/svg" width="120" height="20"><path fill="#000" fill-rule="nonzero" d="m2.282 16.007 11.47-6.458-11.47-6.47v12.928ZM0 19.1V0l17.29 9.55L0 19.098Zm37.803-2.306L31 3.864l-6.848 12.93h13.652ZM31 .026l10.128 18.64h-20.3L31 .026Zm22.04 4.794a2.91 2.91 0 0 0-.25-1.165 3.22 3.22 0 0 0-.692-1.016 3.576 3.576 0 0 0-1.02-.707 2.892 2.892 0 0 0-1.234-.268c-.447 0-.86.09-1.241.268a3.316 3.316 0 0 0-1.662 1.723 2.91 2.91 0 0 0 0 2.358 3.5 3.5 0 0 0 .67 1.021c.281.297.612.535.992.714.38.18.794.269 1.241.269.438 0 .849-.09 1.234-.269a3.51 3.51 0 0 0 1.02-.714c.295-.297.525-.637.692-1.021a2.97 2.97 0 0 0 .25-1.193Zm2.097 0a4.42 4.42 0 0 1-.407 1.893 4.896 4.896 0 0 1-1.141 1.546c-.49.45-1.056.8-1.698 1.048a5.613 5.613 0 0 1-2.047.373 5.137 5.137 0 0 1-1.498-.216 6.157 6.157 0 0 1-1.355-.596v9.798h-2.368V4.82c0-.663.135-1.29.407-1.88a4.73 4.73 0 0 1 1.126-1.538A5.462 5.462 0 0 1 49.843 0a5.613 5.613 0 0 1 3.745 1.402c.49.436.87.95 1.141 1.539.271.59.407 1.216.407 1.88Zm21.54 13.846L68.802 3.825l-7.86 14.841h-2.283L68.802 0l10.157 18.666h-2.283Zm20.186-9.628a9.513 9.513 0 0 0-.435-2.495 7.972 7.972 0 0 0-1.135-2.299 5.944 5.944 0 0 0-1.868-1.69c-.752-.436-1.612-.655-2.582-.655-1.018 0-1.902.214-2.654.642a5.865 5.865 0 0 0-1.868 1.664 7.503 7.503 0 0 0-1.12 2.299 8.982 8.982 0 0 0-.378 2.56v9.602h-2.368V9.222c0-1.432.166-2.683.499-3.753.333-1.07.908-2.046 1.726-2.928.875-.873 1.824-1.515 2.846-1.925C88.547.206 89.653 0 90.842 0a9.542 9.542 0 0 1 3.181.51c.95.315 1.835.93 2.653 1.848.837.96 1.47 1.995 1.897 3.104.428 1.11.642 2.328.642 3.655v9.55h-2.353V9.037Zm5.848.511L120 0v19.099l-17.29-9.55Zm15.022-5.934L106.534 9.55l11.198 5.921V3.615Z"/></svg>
